telier/img/about-twitter.svg

<svg width="16" height="16" viewBox="0 0 16 16" fill="none" xmlns="http://www.w3.org/2000/svg">
<path d="M15.1429 1.42462C14.6632 1.85002 14.134 2.09077 13.5124 2.35627C14.0598 1.8138 14.3729 1.13617 14.3597 0.348102C13.9047 0.865826 13.3079 1.22364 12.6188 1.60619C11.9164 1.20068 10.9866 1.05403 10.1556 1.27667C8.21683 1.79617 7.23441 4.03846 8.19079 5.76125C5.67331 6.33685 3.13594 5.73036 1.07167 4.30443C0.611824 5.91193 1.54347 7.54239 3.08338 8.1193C2.62176 8.24299 2.11067 8.18203 1.59957 8.12107C1.97064 9.50593 3.33254 10.5263 4.81635 10.5246C4.37947 10.7406 3.94259 10.9566 3.45623 10.988C4.14712 12.0892 5.50239 12.7156 6.88725 12.3445C6.00201 13.4723 4.46387 14.3792 2.84488 14.6151C4.45239 15.075 6.17032 15.2083 7.83215 14.7631C13.4639 13.254 15.3413 7.70442 13.9939 3.41468C14.5413 2.87221 14.9468 2.16984 15.1429 1.42462Z" fill="#0047FF"/>
</svg>

<svg width="16" height="16" fill="none" xmlns="http://www.w3.org/2000/svg"><path d="M15.143 1.425c-.48.425-1.009.666-1.63.931.547-.542.86-1.22.847-2.008-.455.518-1.052.876-1.741 1.258a3.338 3.338 0 00-2.463-.33c-1.94.52-2.922 2.762-1.965 4.485-2.518.576-5.055-.03-7.12-1.457-.46 1.608.472 3.238 2.012 3.815-.461.124-.972.063-1.483.002.37 1.385 1.733 2.405 3.216 2.404-.437.216-.873.432-1.36.463a3.097 3.097 0 003.431 1.357c-.885 1.127-2.423 2.034-4.042 2.27 1.607.46 3.325.593 4.987.148 5.632-1.509 7.51-7.059 6.162-11.348a4.416 4.416 0 001.149-1.99z" fill="#0047FF"/></svg>
